static/img/kroki/e5e4c19ed510fc730142d4bb9d615cbb.svg

<?xml version="1.0" encoding="us-ascii" standalone="no"?><svg xmlns="http://www.w3.org/2000/svg" xmlns:xlink="http://www.w3.org/1999/xlink" contentStyleType="text/css" height="741px" preserveAspectRatio="none" style="width:280px;height:741px;" version="1.1" viewBox="0 0 280 741" width="280px" zoomAndPan="magnify"><defs/><g><!--class aws_cloudfront_public_key--><g id="elem_aws_cloudfront_public_key"><rect codeLine="23" fill="#3D176E" height="100.3828" id="aws_cloudfront_public_key" rx="2.5" ry="2.5" style="stroke:#000D19;stroke-width:0.5;" width="266" x="7" y="633.85"/><ellipse cx="22" cy="653.7445" fill="#ADD1B2" rx="11" ry="11" style="stroke:#181818;stroke-width:1.0;"/><path d="M24.9688,659.3852 Q24.3906,659.682 23.75,659.8227 Q23.1094,659.9789 22.4063,659.9789 Q19.9063,659.9789 18.5781,658.3383 Q17.2656,656.682 17.2656,653.557 Q17.2656,650.432 18.5781,648.7758 Q19.9063,647.1195 22.4063,647.1195 Q23.1094,647.1195 23.75,647.2758 Q24.4063,647.432 24.9688,647.7289 L24.9688,650.4477 Q24.3438,649.8695 23.75,649.6039 Q23.1563,649.3227 22.5313,649.3227 Q21.1875,649.3227 20.5,650.4008 Q19.8125,651.4633 19.8125,653.557 Q19.8125,655.6508 20.5,656.7289 Q21.1875,657.7914 22.5313,657.7914 Q23.1563,657.7914 23.75,657.5258 Q24.3438,657.2445 24.9688,656.6664 L24.9688,659.3852 Z " fill="#000000"/><text fill="#D9B8FF" font-family="Helvetica" font-size="17" lengthAdjust="spacing" textLength="224" x="41" y="659.6298">aws_cloudfront_public_key</text><line style="stroke:#000D19;stroke-width:0.5;" x1="8" x2="272" y1="673.6391" y2="673.6391"/><text fill="#D9B8FF" font-family="sans-serif" font-size="14" font-weight="bold" lengthAdjust="spacing" textLength="162" x="18" y="695.6342">public_key_comment</text><text fill="#D9B8FF" font-family="sans-serif" font-size="14" lengthAdjust="spacing" textLength="48" x="180" y="695.6342">: string</text><text fill="#D9B8FF" font-family="sans-serif" font-size="14" font-weight="bold" lengthAdjust="spacing" textLength="193" x="18" y="721.9311">public_key_encoded_key</text><text fill="#D9B8FF" font-family="sans-serif" font-size="14" lengthAdjust="spacing" textLength="48" x="211" y="721.9311">: string</text></g><!--class aws_resource--><g id="elem_aws_resource"><rect codeLine="27" fill="#3D176E" height="74.0859" id="aws_resource" rx="2.5" ry="2.5" style="stroke:#000D19;stroke-width:0.5;" width="155" x="62.5" y="438.76"/><ellipse cx="77.5" cy="458.6545" fill="#ADD1B2" rx="11" ry="11" style="stroke:#181818;stroke-width:1.0;"/><path d="M80.4688,464.2952 Q79.8906,464.592 79.25,464.7327 Q78.6094,464.8889 77.9063,464.8889 Q75.4063,464.8889 74.0781,463.2483 Q72.7656,461.592 72.7656,458.467 Q72.7656,455.342 74.0781,453.6858 Q75.4063,452.0295 77.9063,452.0295 Q78.6094,452.0295 79.25,452.1858 Q79.9063,452.342 80.4688,452.6389 L80.4688,455.3577 Q79.8438,454.7795 79.25,454.5139 Q78.6563,454.2327 78.0313,454.2327 Q76.6875,454.2327 76,455.3108 Q75.3125,456.3733 75.3125,458.467 Q75.3125,460.5608 76,461.6389 Q76.6875,462.7014 78.0313,462.7014 Q78.6563,462.7014 79.25,462.4358 Q79.8438,462.1545 80.4688,461.5764 L80.4688,464.2952 Z " fill="#000000"/><text fill="#D9B8FF" font-family="Helvetica" font-size="17" lengthAdjust="spacing" textLength="113" x="96.5" y="464.5398">aws_resource</text><line style="stroke:#000D19;stroke-width:0.5;" x1="63.5" x2="216.5" y1="478.5491" y2="478.5491"/><text fill="#D9B8FF" font-family="sans-serif" font-size="14" font-weight="bold" lengthAdjust="spacing" textLength="26" x="73.5" y="500.5442">arn</text><text fill="#D9B8FF" font-family="sans-serif" font-size="14" lengthAdjust="spacing" textLength="48" x="99.5" y="500.5442">: string</text></g><!--class resource--><g id="elem_resource"><rect codeLine="30" fill="#3D176E" height="310.7578" id="resource" rx="2.5" ry="2.5" style="stroke:#000D19;stroke-width:0.5;" width="227" x="26.5" y="7"/><ellipse cx="95.25" cy="26.8945" fill="#ADD1B2" rx="11" ry="11" style="stroke:#181818;stroke-width:1.0;"/><path d="M98.2188,32.5352 Q97.6406,32.832 97,32.9727 Q96.3594,33.1289 95.6563,33.1289 Q93.1563,33.1289 91.8281,31.4883 Q90.5156,29.832 90.5156,26.707 Q90.5156,23.582 91.8281,21.9258 Q93.1563,20.2695 95.6563,20.2695 Q96.3594,20.2695 97,20.4258 Q97.6563,20.582 98.2188,20.8789 L98.2188,23.5977 Q97.5938,23.0195 97,22.7539 Q96.4063,22.4727 95.7813,22.4727 Q94.4375,22.4727 93.75,23.5508 Q93.0625,24.6133 93.0625,26.707 Q93.0625,28.8008 93.75,29.8789 Q94.4375,30.9414 95.7813,30.9414 Q96.4063,30.9414 97,30.6758 Q97.5938,30.3945 98.2188,29.8164 L98.2188,32.5352 Z " fill="#000000"/><text fill="#D9B8FF" font-family="Helvetica" font-size="17" lengthAdjust="spacing" textLength="71" x="120.75" y="32.7798">resource</text><line style="stroke:#000D19;stroke-width:0.5;" x1="27.5" x2="252.5" y1="46.7891" y2="46.7891"/><text fill="#D9B8FF" font-family="sans-serif" font-size="14" font-weight="bold" lengthAdjust="spacing" textLength="29" x="37.5" y="68.7842">age</text><text fill="#D9B8FF" font-family="sans-serif" font-size="14" lengthAdjust="spacing" textLength="66" x="66.5" y="68.7842">: duration</text><text fill="#D9B8FF" font-family="sans-serif" font-size="14" font-weight="bold" lengthAdjust="spacing" textLength="43" x="37.5" y="95.0811">atime</text><text fill="#D9B8FF" font-family="sans-serif" font-size="14" lengthAdjust="spacing" textLength="70" x="80.5" y="95.0811">: datetime</text><text fill="#D9B8FF" font-family="sans-serif" font-size="14" font-weight="bold" lengthAdjust="spacing" textLength="43" x="37.5" y="121.3779">ctime</text><text fill="#D9B8FF" font-family="sans-serif" font-size="14" lengthAdjust="spacing" textLength="70" x="80.5" y="121.3779">: datetime</text><text fill="#D9B8FF" font-family="sans-serif" font-size="14" font-weight="bold" lengthAdjust="spacing" textLength="14" x="37.5" y="147.6748">id</text><text fill="#D9B8FF" font-family="sans-serif" font-size="14" lengthAdjust="spacing" textLength="48" x="51.5" y="147.6748">: string</text><text fill="#D9B8FF" font-family="sans-serif" font-size="14" font-weight="bold" lengthAdjust="spacing" textLength="33" x="37.5" y="173.9717">kind</text><text fill="#D9B8FF" font-family="sans-serif" font-size="14" lengthAdjust="spacing" textLength="48" x="70.5" y="173.9717">: string</text><text fill="#D9B8FF" font-family="sans-serif" font-size="14" font-weight="bold" lengthAdjust="spacing" textLength="90" x="37.5" y="200.2686">last_access</text><text fill="#D9B8FF" font-family="sans-serif" font-size="14" lengthAdjust="spacing" textLength="66" x="127.5" y="200.2686">: duration</text><text fill="#D9B8FF" font-family="sans-serif" font-size="14" font-weight="bold" lengthAdjust="spacing" textLength="90" x="37.5" y="226.5654">last_update</text><text fill="#D9B8FF" font-family="sans-serif" font-size="14" lengthAdjust="spacing" textLength="66" x="127.5" y="226.5654">: duration</text><text fill="#D9B8FF" font-family="sans-serif" font-size="14" font-weight="bold" lengthAdjust="spacing" textLength="48" x="37.5" y="252.8623">mtime</text><text fill="#D9B8FF" font-family="sans-serif" font-size="14" lengthAdjust="spacing" textLength="70" x="85.5" y="252.8623">: datetime</text><text fill="#D9B8FF" font-family="sans-serif" font-size="14" font-weight="bold" lengthAdjust="spacing" textLength="43" x="37.5" y="279.1592">name</text><text fill="#D9B8FF" font-family="sans-serif" font-size="14" lengthAdjust="spacing" textLength="48" x="80.5" y="279.1592">: string</text><text fill="#D9B8FF" font-family="sans-serif" font-size="14" font-weight="bold" lengthAdjust="spacing" textLength="34" x="37.5" y="305.4561">tags</text><text fill="#D9B8FF" font-family="sans-serif" font-size="14" lengthAdjust="spacing" textLength="171" x="71.5" y="305.4561">: dictionary[string, string]</text></g><!--reverse link aws_resource to aws_cloudfront_public_key--><g id="link_aws_resource_aws_cloudfront_public_key"><path codeLine="42" d="M140,531.2 C140,564.62 140,596.42 140,633.47 " fill="none" id="aws_resource-backto-aws_cloudfront_public_key" style="stroke:#FFAF37;stroke-width:2.0;"/><polygon fill="none" points="140,513.2,134,531.2,146,531.2,140,513.2" style="stroke:#FFAF37;stroke-width:2.0;"/></g><!--reverse link resource to aws_resource--><g id="link_resource_aws_resource"><path codeLine="43" d="M140,336.18 C140,381.21 140,408.35 140,438.52 " fill="none" id="resource-backto-aws_resource" style="stroke:#FFAF37;stroke-width:2.0;"/><polygon fill="none" points="140,318.18,134,336.18,146,336.18,140,318.18" style="stroke:#FFAF37;stroke-width:2.0;"/></g><!--SRC=[XPFBJiCm44Nt-GfBtLLKQa5GYjX09GGRX80TGj7KdhHMOpiQErJbyU_OJLkSHylEllTaviuaMKY135NXraoXcY7Pn2wbBe10iHiYivgQt13hPHbaP-EcUMUq-nTu18Ni7lCFT993atXTIBxKQ2qxZQnRuCivcLABghmZqDPRg5r4JNEmziOvahFIOHH6J6QNMTOacqLxPs8qli0MPaWWRP7XS2X6aoRoRwkZS- -95_c9R1GlxT4uRCLijTXGHrC68WhP6dJd7ypu1498FMVdaVPSPIADLDDV5Y3CAj0Pv3PkOnqI6hSkSDgQ2YUN8XjtmW-7u8I7rJ5OsPJdfXGP-HdIefpbagTBNBElfD__kwRSAEK_cNx_obSddx1ke-P6e0Zd2Fc9kX1QKnB7JM4WtO7LaJa6H9G4JXeT52TLfO73SFOQxz2agANqMwaBlfTBWNF_fpGwR9oo2BKQZkheew6IzeKTpAkAaeV7WDPlbNUoPTxzgBLTN7yF1eF3Bo7f07TIyWi0]--></g></svg>

<svg xmlns="http://www.w3.org/2000/svg" width="280" height="741" viewBox="0 0 280 741"><rect width="266" height="100.383" x="7" y="633.85" fill="#3D176E" rx="2.5" ry="2.5" style="stroke:#000d19;stroke-width:.5"/><circle cx="22" cy="653.745" r="11" fill="#ADD1B2" style="stroke:#181818;stroke-width:1"/><path d="M24.969 659.385q-.578.297-1.219.438-.64.156-1.344.156-2.5 0-3.828-1.64-1.312-1.657-1.312-4.782t1.312-4.781q1.328-1.656 3.828-1.656.703 0 1.344.156.656.156 1.219.453v2.719q-.625-.578-1.219-.844-.594-.281-1.219-.281-1.343 0-2.031 1.078-.687 1.062-.687 3.156t.687 3.172q.688 1.062 2.031 1.062.625 0 1.219-.265.594-.281 1.219-.86z"/><text x="41" y="659.63" fill="#D9B8FF" font-family="Helvetica" font-size="17" textLength="224">aws_cloudfront_public_key</text><path d="M8 673.639h264" style="stroke:#000d19;stroke-width:.5"/><text x="18" y="695.634" fill="#D9B8FF" font-family="sans-serif" font-size="14" font-weight="bold" textLength="162">public_key_comment</text><text x="180" y="695.634" fill="#D9B8FF" font-family="sans-serif" font-size="14" textLength="48">: string</text><text x="18" y="721.931" fill="#D9B8FF" font-family="sans-serif" font-size="14" font-weight="bold" textLength="193">public_key_encoded_key</text><text x="211" y="721.931" fill="#D9B8FF" font-family="sans-serif" font-size="14" textLength="48">: string</text><rect width="155" height="74.086" x="62.5" y="438.76" fill="#3D176E" rx="2.5" ry="2.5" style="stroke:#000d19;stroke-width:.5"/><circle cx="77.5" cy="458.654" r="11" fill="#ADD1B2" style="stroke:#181818;stroke-width:1"/><path d="M80.469 464.295q-.578.297-1.219.438-.64.156-1.344.156-2.5 0-3.828-1.64-1.312-1.657-1.312-4.782t1.312-4.781q1.328-1.656 3.828-1.656.703 0 1.344.156.656.156 1.219.453v2.719q-.625-.579-1.219-.844-.594-.281-1.219-.281-1.344 0-2.031 1.078-.687 1.062-.687 3.156t.687 3.172q.688 1.062 2.031 1.062.625 0 1.219-.265.594-.281 1.219-.86z"/><text x="96.5" y="464.54" fill="#D9B8FF" font-family="Helvetica" font-size="17" textLength="113">aws_resource</text><path d="M63.5 478.549h153" style="stroke:#000d19;stroke-width:.5"/><text x="73.5" y="500.544" fill="#D9B8FF" font-family="sans-serif" font-size="14" font-weight="bold" textLength="26">arn</text><text x="99.5" y="500.544" fill="#D9B8FF" font-family="sans-serif" font-size="14" textLength="48">: string</text><rect width="227" height="310.758" x="26.5" y="7" fill="#3D176E" rx="2.5" ry="2.5" style="stroke:#000d19;stroke-width:.5"/><circle cx="95.25" cy="26.895" r="11" fill="#ADD1B2" style="stroke:#181818;stroke-width:1"/><path d="M98.219 32.535q-.578.297-1.219.438-.64.156-1.344.156-2.5 0-3.828-1.64-1.312-1.657-1.312-4.782t1.312-4.781q1.328-1.656 3.828-1.656.703 0 1.344.156.656.156 1.219.453v2.719q-.625-.578-1.219-.844-.594-.281-1.219-.281-1.344 0-2.031 1.078-.687 1.062-.687 3.156t.687 3.172q.688 1.062 2.031 1.062.625 0 1.219-.265.594-.281 1.219-.86z"/><text x="120.75" y="32.78" fill="#D9B8FF" font-family="Helvetica" font-size="17" textLength="71">resource</text><path d="M27.5 46.789h225" style="stroke:#000d19;stroke-width:.5"/><text x="37.5" y="68.784" fill="#D9B8FF" font-family="sans-serif" font-size="14" font-weight="bold" textLength="29">age</text><text x="66.5" y="68.784" fill="#D9B8FF" font-family="sans-serif" font-size="14" textLength="66">: duration</text><text x="37.5" y="95.081" fill="#D9B8FF" font-family="sans-serif" font-size="14" font-weight="bold" textLength="43">atime</text><text x="80.5" y="95.081" fill="#D9B8FF" font-family="sans-serif" font-size="14" textLength="70">: datetime</text><text x="37.5" y="121.378" fill="#D9B8FF" font-family="sans-serif" font-size="14" font-weight="bold" textLength="43">ctime</text><text x="80.5" y="121.378" fill="#D9B8FF" font-family="sans-serif" font-size="14" textLength="70">: datetime</text><text x="37.5" y="147.675" fill="#D9B8FF" font-family="sans-serif" font-size="14" font-weight="bold" textLength="14">id</text><text x="51.5" y="147.675" fill="#D9B8FF" font-family="sans-serif" font-size="14" textLength="48">: string</text><text x="37.5" y="173.972" fill="#D9B8FF" font-family="sans-serif" font-size="14" font-weight="bold" textLength="33">kind</text><text x="70.5" y="173.972" fill="#D9B8FF" font-family="sans-serif" font-size="14" textLength="48">: string</text><text x="37.5" y="200.269" fill="#D9B8FF" font-family="sans-serif" font-size="14" font-weight="bold" textLength="90">last_access</text><text x="127.5" y="200.269" fill="#D9B8FF" font-family="sans-serif" font-size="14" textLength="66">: duration</text><text x="37.5" y="226.565" fill="#D9B8FF" font-family="sans-serif" font-size="14" font-weight="bold" textLength="90">last_update</text><text x="127.5" y="226.565" fill="#D9B8FF" font-family="sans-serif" font-size="14" textLength="66">: duration</text><text x="37.5" y="252.862" fill="#D9B8FF" font-family="sans-serif" font-size="14" font-weight="bold" textLength="48">mtime</text><text x="85.5" y="252.862" fill="#D9B8FF" font-family="sans-serif" font-size="14" textLength="70">: datetime</text><text x="37.5" y="279.159" fill="#D9B8FF" font-family="sans-serif" font-size="14" font-weight="bold" textLength="43">name</text><text x="80.5" y="279.159" fill="#D9B8FF" font-family="sans-serif" font-size="14" textLength="48">: string</text><text x="37.5" y="305.456" fill="#D9B8FF" font-family="sans-serif" font-size="14" font-weight="bold" textLength="34">tags</text><text x="71.5" y="305.456" fill="#D9B8FF" font-family="sans-serif" font-size="14" textLength="171">: dictionary[string, string]</text><path fill="none" d="M140 531.2v102.27m0-120.27-6 18h12zm0-177.02v102.34m0-120.34-6 18h12z" style="stroke:#ffaf37;stroke-width:2"/></svg>
